icons/eye-24.svg

<svg xmlns="http://www.w3.org/2000/svg" width="24" height="24" viewBox="0 0 24 24"><path d="M15.5 12a3.5 3.5 0 11-7 0 3.5 3.5 0 017 0z"/><path d="M12 3.5c3.432 0 6.124 1.534 8.054 3.241 1.926 1.703 3.132 3.61 3.616 4.46a1.6 1.6 0 010 1.598c-.484.85-1.69 2.757-3.616 4.461-1.929 1.706-4.622 3.24-8.054 3.24-3.432 0-6.124-1.534-8.054-3.24C2.02 15.558.814 13.65.33 12.8a1.6 1.6 0 010-1.598c.484-.85 1.69-2.757 3.616-4.462C5.875 5.034 8.568 3.5 12 3.5zM1.633 11.945a.115.115 0 00-.017.055c.001.02.006.039.017.056.441.774 1.551 2.527 3.307 4.08C6.691 17.685 9.045 19 12 19c2.955 0 5.31-1.315 7.06-2.864 1.756-1.553 2.866-3.306 3.307-4.08a.111.111 0 00.017-.056.111.111 0 00-.017-.056c-.441-.773-1.551-2.527-3.307-4.08C17.309 6.315 14.955 5 12 5 9.045 5 6.69 6.314 4.94 7.865c-1.756 1.552-2.866 3.306-3.307 4.08z"/></svg>

<svg xmlns="http://www.w3.org/2000/svg" width="24" height="24" viewBox="0 0 24 24">
  <defs/>
  <path d="M15.5,12 A3.5 3.5 0 1 1 8.5,12 A3.5 3.5 0 0 1 15.5,12 Z"/>
  <path d="M12,3.5 C15.432,3.5 18.124,5.034 20.054,6.741 C21.98,8.444 23.186,10.351 23.67,11.201 C23.955,11.696 23.955,12.304 23.67,12.799 C23.186,13.649 21.98,15.556 20.054,17.26 C18.125,18.966 15.432,20.5 12,20.5 C8.568,20.5 5.876,18.966 3.946,17.26 C2.02,15.558 0.814,13.65 0.33,12.8 C0.045,12.305 0.045,11.697 0.33,11.202 C0.814,10.352 2.02,8.445 3.946,6.74 C5.875,5.034 8.568,3.5 12,3.5 Z M1.633,11.945 C1.623,11.961 1.617,11.98 1.616,12 C1.617,12.02 1.622,12.039 1.633,12.056 C2.074,12.83 3.184,14.583 4.94,16.136 C6.691,17.685 9.045,19 12,19 C14.955,19 17.31,17.685 19.06,16.136 C20.816,14.583 21.926,12.83 22.367,12.056 C22.378,12.039 22.383,12.02 22.384,12 C22.383,11.98 22.378,11.961 22.367,11.944 C21.926,11.171 20.816,9.417 19.06,7.864 C17.309,6.315 14.955,5 12,5 C9.045,5 6.69,6.314 4.94,7.865 C3.184,9.417 2.074,11.171 1.633,11.945 Z"/>
</svg>
